X:1
T:Judea, 11.11.11.11
T:Judea, 11.11.11.11
T:John Bacchus Dykes (1823-1876)
T:Public Domain Courtesy of the Cyber Hymnal™
C:John Bacchus Dykes (1823-1876)
Z:Public Domain
Z:Courtesy of the Cyber Hymnal™
%%score ( 1 2 ) ( 3 4 )
L:1/8
M:3/4
K:F
V:1 treble 
V:2 treble 
V:3 bass 
V:4 bass 
V:1
 [CF]2 | [CA]2 [CG]2 [CF]2 | [CF]2 [CE]2 [CF]2 | [DB]2 [CB]2 A2 | [EG]4 [EG]2 | [Fc]2 B2 [FA]2 | %6
 [DG]2 [CG]2 A2 | E2 [=B,F]2 ED | (C4 [EG]2) | [Ec]2 [Ec]2 [DA]2 | [DB]2 [DB]2 [CG]2 | %11
 [CA]2 [CA]2 (DG) | (F2 E2) [CE]2 | [CF]2 C2 [CF]2 | [FB]2 [Ec]2 [Dd]2 | [Ed]3 [DE] E2 | %16
 !fermata!F4 |] %17
V:2
 x2 | x6 | x6 | x4 (CD) | x6 | x2 FE x2 | x4 (CD) | E2 =B,2 x2 | C4 x2 | x6 | x6 | x4 D2 | C4 x2 | %13
 x6 | x6 | x4 (CB,) | (B,2 A,2) |] %17
V:3
 [F,A,]2 | [F,A,]2 [G,B,]2 [A,C]2 | [G,B,]2 [G,B,]2 [F,A,]2 | [F,G,]2 [E,G,]2 (A,B,) | %4
 [C,C]4 [B,C]2 | [A,C]2 [G,C]2 [F,C]2 | [F,=B,]2 [E,C]2 [F,A,]2 | [G,C]2 (=B,A,) (G,F,) | %8
 [C,E,]4 [C,C]2 | [A,C]2 [A,C]2 [^F,C]2 | [G,B,]2 [G,B,]2 [E,B,]2 | [F,A,]2 [F,A,]2 [B,,A,]2 | %12
 (A,2 G,2) [G,B,]2 | [F,A,]2 [E,G,]2 [_E,A,]2 | [D,B,]2 [C,B,]2 [B,,B,]2 | [C,B,]3 [C,B,] (A,G,) | %16
 !fermata![F,,F,]4 |] %17
V:4
 x2 | x6 | x6 | x4 F,2 | x6 | x6 | x6 | x2 G,2 G,,2 | x6 | x6 | x6 | x6 | C,4 x2 | x6 | x6 | %15
 x4 C,2 | x4 |] %17

